X:1
T:Listen to the Song
T:Listen to the Song
T:Joseph W. Lerman
T:Joseph W. Lerman, 1902
T:Public Domain Courtesy of the Cyber Hymnal™
T:Public Domain Courtesy of the Cyber Hymnal™
C:Joseph W. Lerman
Z:Public Domain
Z:Courtesy of the Cyber Hymnal™
%%score ( 1 2 ) ( 3 4 )
L:1/8
Q:1/4=115
M:4/4
K:Bb
V:1 treble 
V:2 treble 
V:3 bass 
V:4 bass 
V:1
 [Fd]2 [=E^c]2 [Fd]2 [DB]2 | [DF]4 [DG]2 [DA]2 | [DFc]4 [DFB]4 | [A,EA]6 z2 | %4
w: 1.~Lis- ten to the|song swell- ing|o’er the|earth,|
w: 2.~Shat- tered were the|bonds of the|dis- mal|tomb,|
w: 3.~Je- sus Christ, the|first fruits of|them that|slept,|
 [A,EG]2 [A,EF]2 [CEB]2 [CEA]2 | [EAd]2 [EAc]2 [EAc]4 | [EAd]2 [EAc]2 [CFB]2 [CEA]2 | %7
w: Mil- lions now their|voic- es raise|In tri- umph- ant|
w: End- ed, too, were|death’s dark woes|On the day when|
w: Brushed a- way death’s|might- y bar;|Hea- ven’s gates now|
 [CEG]2 [CEF]2 [CEF]4 | [Fd]2 [=E^c]2 [Fd]2 [DB]2 | [DF]4 [DG]2 [DA]2 | [DFc]4 [DFB]4 | [CFA]6 z2 | %12
w: note of praise;|Loud ho- san- nas|sing to the|con- qu’ring|King—|
w: Christ a- rose;|Hea- ven rang a-|gain with a|glad re-|frain,|
w: stand a- jar,|And be- yond this|strife, sin and|e- vil|rife,|
 [FA]2 [FB]2 [F=B]2 [Fc]2 | [Fd]2 [Fc]2 [F=B]2 [F_B]2 | [EG]4 [=EG]4 | (z z2) x8 || %16
w: Van- quished He the|grave— From death re-|moved the||
w: Earth pealed forth the|cho- rus: “Hell’s dark|power is||
w: All may pass thro’|death Un- to e-|ter- nal||
"^Refrain" [A,EG]2 [A,EA]2 [A,EA]4 | [EAe]2 [A,EA]2 !>![A,EA]4 | [DG]2 [DF]2 [DF]4 | %19
w: sting. * *|||
w: vain.” Eas- ter|dawn, hap- py|morn! When the|
w: life. * *|||
 [Dd]2 [DB]2 [DA]2 [DG]2 | !>![EAe]4 !>![EAe]4 | !>![DAe]2 [EF]2 [EG]2 [EF]2 | %22
w: |||
w: Lord rose from death|to set|us free For all|
w: |||
 !>![DFd]4 !>![DFd]4 | !>![Dd]2 [DB]2 [DF]2 [D^F]2 | [A,EG]2 [A,EA]2 !>![A,EA]4 | %25
w: |||
w: e- ter-|ni- ty, We sing|our hap- py|
w: |||
 [EAe]2 [A,EA]2 !>![A,EA]4 | [DG]2 [DF]2 [DF]4 |!<(! [Dd]2 [DB]2 [Fc]2 [Fd]2!<)! | %28
w: |||
w: lay, on this|day, and al-|way We’ll re- joice|
w: |||
 !>![EBe]4 !>![EBe]4 | [FBf]2 [FBd]2 [FB]2 [Gc]2 | !>![Fd]4 !>![Ec]4 | [DB]6 z2 |] %32
w: ||||
w: that Christ|o’er death Has gained|the vic-|to-|
w: ||||
V:2
 x8 | x8 | x8 | x8 | x8 | x8 | x8 | x8 | x8 | x8 | x8 | x8 | x8 | x8 | x8 | (F6 F F2 F2) || x8 | %17
 x8 | x8 | x8 | x8 | x8 | x8 | x8 | x8 | x8 | x8 | x8 | x8 | x8 | x8 | x8 |] %32
V:3
 B,,2 F,2 F,,2 F,2 | z2 F,2 F,2 F,2 | B,,2 F,2 (F,,2 [F,,F,]2) | (z2 F,2 F,2 F,2) | %4
 C,2 F,2 F,,2 F,2 | z2 F,2 (F,2 F,2) | C,2 [F,,F,]2 [G,,G,]2 [A,,A,]2 | %7
 [B,,B,]2 [A,,A,]2 ([A,,A,]2 [F,,F,]2) | B,,2 F,2 F,,2 F,2 | z2 F,2 F,2 F,2 | %10
 (B,,2 F,2) (F,,2 F,2) | (C,2 F,2 C,2 A,,2) | [F,,F,]2 [G,,G,]2 [^G,,^G,]2 [A,,A,]2 | %13
 [A,,B,]2 [A,,A,]2 [_A,,_A,]2 [G,,G,]2 | C,4 [C,B,]4 | [F,A,]6 z2 x3 || C,2 F,2 (F,,2 F,2) | %17
 C,2 F,2 (F,,2 F,2) | C,2 F,2 (F,,2 F,2) | z2 F,2 F,2 F,2 | (C,2 F,2) (F,,2 F,2) | %21
 C,2 F,2 F,,2 F,2 | (B,,2 F,2) (F,,2 F,2) | B,,2 F,2 D,2 B,,2 | C,2 F,2 (F,,2 G,2) | %25
 C,2 F,2 (F,,2 F,2) | B,,2 F,2 (F,,2 F,2) | B,,2 [B,,B,]2 [A,,A,]2 [_A,,_A,]2 | %28
 [G,,G,]4 [_G,,_G,]4 | [F,,F,]2 [F,,F,]2 [D,,D,]2 [E,,E,]2 | [F,,F,]4 [F,,F,]4 | [B,,F,]6 z2 |] %32
V:4
 x8 | B,,8 | x8 | C,8 | x8 | A,,8 | x8 | x8 | x8 | B,,8 | x8 | x8 | x8 | x8 | C,4 x4 | x11 || x8 | %17
 x8 | x8 | B,,8 | x8 | x8 | x8 | x8 | x8 | x8 | x8 | x8 | x8 | x8 | x8 | x8 |] %32

